X:1
T:5
T:5
T:Études enfantines op. 37
T:Henry Lemoine
C:Henri Lemoine
%%score { 1 | 2 }
L:1/8
Q:1/4=120
M:2/4
K:C
V:1 treble nm="Piano" snm="Pno."
V:2 bass 
V:1
"^Allegretto""_sostenuto il canto" [Gce]4- | [Gce]2 [Gce]2 | [GBf]4- | [GBf]2"_cresc." [GBf]2 | %4
!f! [Gce]4- | [Gce]2 [Gce]2 | [GBf]4- | [GBf]2 [GBf]2 |"_sempre" [Gce]2 z2!f! | [GBd]2 z2 | %10
 [Gce]2 z2 | [GBd]2 z2 | z/ c/d/e/ f/g/a/b/ | c'/!8va(!c'/d'/e'/ f'/g'/a'/b'/!8va)! | .c' z z2 | %15
!ff! !fermata![EGc]4 |] %16
V:2
"_legato" !4!C/!3!D/!2!^D/!1!E/ !4!G,/A,/B,/C/ | !4!E,/!3!F,/!2!^F,/!1!G,/ !4!C,/D,/^D,/E,/ | %2
 !4!D,/!3!^D,/!2!E,/!1!F,/ !4!B,,/C,/^C,/=D,/ | !5!G,,/A,,/B,,/=C,/ !1!D,/!3!E,/F,/G,/ | %4
 !4!C,/!3!D,/!2!^D,/!1!E,/ !4!G,,/A,,/B,,/C,/ | %5
 !4!E,,/!3!F,,/!2!^F,,/!1!G,,/ !4!C,,/D,,/^D,,/E,,/ | %6
 !4!D,,/!3!^D,,/!2!E,,/!1!F,,/ !4!B,,,/C,,/^C,,/=D,,/ | %7
 !5!G,,,/A,,,/B,,,/=C,,/ !1!D,,/!3!E,,/F,,/G,,/ | !5!C,,/D,,/E,,/F,,/ !1!G,,/!3!A,,/B,,/C,/ | %9
 !5!G,,/A,,/B,,/C,/ !1!D,/!3!E,/F,/G,/ | !5!C,/D,/E,/F,/ !1!G,/!3!A,/B,/C/ | %11
 !5!G,/A,/B,/C/ !1!D/!3!E/F/G/ | [CE]4 | z/ !1!C/B,/A,/ !1!G,/F,/E,/D,/ | .C, z z2 | %15
 !fermata![C,G,]4 |] %16

